assets/img/down-arrow.svg

<svg viewBox="0 0 51 50" fill="none" xmlns="http://www.w3.org/2000/svg">
<path d="M25.5 0C11.7188 0 0.5 11.2188 0.5 25C0.5 38.7812 11.7188 50 25.5 50C39.2812 50 50.5 38.7812 50.5 25C50.5 11.2188 39.2812 0 25.5 0ZM25.5 47.9167C12.8646 47.9167 2.5833 37.6354 2.5833 25C2.5833 12.3646 12.8646 2.0833 25.5 2.0833C38.1354 2.0833 48.4167 12.3646 48.4167 25C48.4167 37.6354 38.1354 47.9167 25.5 47.9167Z" fill="#777777" fill-opacity="0.7"/>
<path d="M36.2186 27.3958L26.5416 37.0729V10.4583C26.5416 9.93753 26.1666 9.46878 25.6561 9.39583C25.0103 9.30208 24.4582 9.80208 24.4582 10.4271V37.0833L14.7812 27.3958C14.3645 27 13.7082 27.0104 13.3124 27.4166C12.927 27.8229 12.927 28.4583 13.3124 28.8646L24.7707 40.3229C25.1769 40.7291 25.8332 40.7291 26.2394 40.3229L37.6977 28.8646C38.0935 28.4479 38.0832 27.7916 37.6769 27.3958C37.2707 27.0105 36.6249 27.0105 36.2186 27.3958Z" fill="#777777" />
</svg>

<svg viewBox="0 0 51 50" fill="none" xmlns="http://www.w3.org/2000/svg"><path d="M25.5 0C11.719 0 .5 11.219.5 25s11.219 25 25 25 25-11.219 25-25-11.219-25-25-25zm0 47.917C12.865 47.917 2.583 37.635 2.583 25c0-12.635 10.282-22.917 22.917-22.917 12.635 0 22.917 10.282 22.917 22.917 0 12.635-10.282 22.917-22.917 22.917z" fill="#777" fill-opacity=".7"/><path d="M36.219 27.396l-9.677 9.677V10.458c0-.52-.375-.99-.886-1.062a1.043 1.043 0 00-1.198 1.031v26.656l-9.677-9.687a1.047 1.047 0 00-1.469.02 1.051 1.051 0 000 1.449l11.459 11.458a1.037 1.037 0 001.468 0l11.459-11.458a1.047 1.047 0 00-.021-1.47 1.064 1.064 0 00-1.458 0z" fill="#777"/></svg>
